fonts/kodito.svg

<?xml version="1.0" encoding="UTF-8" standalone="no"?>
<svg width="500" height="850" version="1.1" id="svg7" sodipodi:docname="kodito.svg" inkscape:version="1.4.3 (0d15f750, 2025-12-25)" xmlns:inkscape="http://www.inkscape.org/namespaces/inkscape" xmlns:sodipodi="http://sodipodi.sourceforge.net/DTD/sodipodi-0.dtd" xmlns="http://www.w3.org/2000/svg" xmlns:svg="http://www.w3.org/2000/svg">
    <defs id="defs7" />
    <sodipodi:namedview id="namedview7" pagecolor="#ffffff" bordercolor="#000000" borderopacity="0.25" inkscape:showpageshadow="2" inkscape:pageopacity="0.0" inkscape:pagecheckerboard="0" inkscape:deskcolor="#d1d1d1" inkscape:zoom="0.53647059" inkscape:cx="250.71272" inkscape:cy="425" inkscape:window-width="1080" inkscape:window-height="675" inkscape:window-x="0" inkscape:window-y="25" inkscape:window-maximized="0" inkscape:current-layer="svg7" />
    <path id="path7" style="fill:#000000;fill-opacity:0;stroke:#ff0000" d="M 250,300 A 125,125 0 0 0 125,425 125,125 0 0 0 250,550 125,125 0 0 0 375,425 125,125 0 0 0 250,300 Z m 0,50 a 75,75 0 0 1 75,75 75,75 0 0 1 -75,75 75,75 0 0 1 -75,-75 75,75 0 0 1 75,-75 z M 250,0 a 25,25 0 0 0 -25,25 v 800 a 25,25 0 0 0 25,25 25,25 0 0 0 25,-25 V 25 A 25,25 0 0 0 250,0 Z m 0,200 A 225,225 0 0 0 25,425 225,225 0 0 0 250,650 225,225 0 0 0 475,425 225,225 0 0 0 250,200 Z m 0,50 A 175,175 0 0 1 425,425 175,175 0 0 1 250,600 175,175 0 0 1 75,425 175,175 0 0 1 250,250 Z m 0,150 a 25,25 0 0 0 -25,25 25,25 0 0 0 7.36719,17.63281 l -0.0449,0.0449 141.42187,141.42188 a 25,25 0 0 0 35.35547,0 25,25 0 0 0 0,-35.35547 L 267.67773,407.32227 A 25,25 0 0 0 250,400 Z m -200,0 c -13.807119,0 -25,11.19288 -25,25 A 225,225 0 0 0 250,650 225,225 0 0 0 475,425 c 0,-13.80712 -11.19288,-25 -25,-25 -13.80712,0 -25,11.19288 -25,25 A 175,175 0 0 1 250,600 175,175 0 0 1 75,425 C 75,411.19288 63.807119,400 50,400 Z m 56.79492,-141.35742 a 25,25 0 0 0 -15.89453,7.25781 25,25 0 0 0 0,35.35547 l 141.42188,141.42187 0.0449,-0.0449 A 25,25 0 0 0 250,450 25,25 0 0 0 275,425 25,25 0 0 0 267.67773,407.32227 L 126.25586,265.90039 a 25,25 0 0 0 -19.46094,-7.25781 z M 250,200 A 225,225 0 0 0 25,425 c 0,13.80712 11.192881,25 25,25 13.807119,0 25,-11.19288 25,-25 A 175,175 0 0 1 250,250 175,175 0 0 1 425,425 c 0,13.80712 11.19288,25 25,25 13.80712,0 25,-11.19288 25,-25 A 225,225 0 0 0 250,200 Z" />
</svg>

<?xml version="1.0" encoding="UTF-8" standalone="no"?>
<svg width="500" height="850" version="1.1" id="svg1" sodipodi:docname="uni0049.svg"
    inkscape:version="1.4.3 (0d15f750, 2025-12-25)" xmlns:inkscape="http://www.inkscape.org/namespaces/inkscape"
    xmlns:sodipodi="http://sodipodi.sourceforge.net/DTD/sodipodi-0.dtd" xmlns="http://www.w3.org/2000/svg"
    xmlns:svg="http://www.w3.org/2000/svg">
    <defs id="defs1" />
    <sodipodi:namedview id="namedview1" pagecolor="#ffffff" bordercolor="#000000" borderopacity="0.25"
        inkscape:showpageshadow="2" inkscape:pageopacity="0.0" inkscape:pagecheckerboard="0"
        inkscape:deskcolor="#d1d1d1" inkscape:zoom="0.62588235" inkscape:cx="250.04699" inkscape:cy="425"
        inkscape:window-width="1095" inkscape:window-height="751" inkscape:window-x="0" inkscape:window-y="25"
        inkscape:window-maximized="0" inkscape:current-layer="svg1" />
    <path id="path1"
        d="M 250 200 A 225 225 0 0 0 25 425 C 25 438.80712 36.192881 450 50 450 C 63.807119 450 75 438.80712 75 425 A 175 175 0 0 1 250 250 A 175 175 0 0 1 425 425 C 425 438.80712 436.19288 450 450 450 C 463.80712 450 475 438.80712 475 425 A 225 225 0 0 0 250 200 z " />
</svg>
<svg width="500" height="850" xmlns="http://www.w3.org/2000/svg">
    <path
        d="m 106.79492,258.64258 a 25,25 0 0 0 -15.89453,7.25781 25,25 0 0 0 0,35.35547 l 141.42188,141.42187 0.0449,-0.0449 A 25,25 0 0 0 250,450 25,25 0 0 0 275,425 25,25 0 0 0 267.67773,407.32227 L 126.25586,265.90039 a 25,25 0 0 0 -19.46094,-7.25781 z" />
</svg>
<?xml version="1.0" encoding="UTF-8" standalone="no"?>
<svg width="500" height="850" version="1.1" id="svg1" sodipodi:docname="uni0057.svg"
    inkscape:version="1.4.3 (0d15f750, 2025-12-25)" xmlns:inkscape="http://www.inkscape.org/namespaces/inkscape"
    xmlns:sodipodi="http://sodipodi.sourceforge.net/DTD/sodipodi-0.dtd" xmlns="http://www.w3.org/2000/svg"
    xmlns:svg="http://www.w3.org/2000/svg">
    <defs id="defs1" />
    <sodipodi:namedview id="namedview1" pagecolor="#ffffff" bordercolor="#000000" borderopacity="0.25"
        inkscape:showpageshadow="2" inkscape:pageopacity="0.0" inkscape:pagecheckerboard="0"
        inkscape:deskcolor="#d1d1d1" inkscape:zoom="0.50352941" inkscape:cx="249.24065" inkscape:cy="425"
        inkscape:window-width="1095" inkscape:window-height="647" inkscape:window-x="0" inkscape:window-y="25"
        inkscape:window-maximized="0" inkscape:current-layer="svg1" />
    <path id="path1"
        d="M 50 400 C 36.192881 400 25 411.19288 25 425 A 225 225 0 0 0 250 650 A 225 225 0 0 0 475 425 C 475 411.19288 463.80712 400 450 400 C 436.19288 400 425 411.19288 425 425 A 175 175 0 0 1 250 600 A 175 175 0 0 1 75 425 C 75 411.19288 63.807119 400 50 400 z " />
</svg>
<svg width="500" height="850" xmlns="http://www.w3.org/2000/svg">
    <path
        d="m 250,400 a 25,25 0 0 0 -25,25 25,25 0 0 0 7.36719,17.63281 l -0.0449,0.0449 141.42187,141.42188 a 25,25 0 0 0 35.35547,0 25,25 0 0 0 0,-35.35547 L 267.67773,407.32227 A 25,25 0 0 0 250,400 Z" />

    <path
        d="M 250 200 A 225 225 0 0 0 25 425 A 225 225 0 0 0 250 650 A 225 225 0 0 0 475 425 A 225 225 0 0 0 250 200 z M 250 250 A 175 175 0 0 1 425 425 A 175 175 0 0 1 250 600 A 175 175 0 0 1 75 425 A 175 175 0 0 1 250 250 z " />

    <path
        d="M 250 0 A 25 25 0 0 0 225 25 L 225 825 A 25 25 0 0 0 250 850 A 25 25 0 0 0 275 825 L 275 25 A 25 25 0 0 0 250 0 z " />

    <path
        d="M 250 300 A 125 125 0 0 0 125 425 A 125 125 0 0 0 250 550 A 125 125 0 0 0 375 425 A 125 125 0 0 0 250 300 z M 250 350 A 75 75 0 0 1 325 425 A 75 75 0 0 1 250 500 A 75 75 0 0 1 175 425 A 75 75 0 0 1 250 350 z " />
</svg>
